X: 32075
T: Penny Candle, The
R: reel
M: 4/4
K: Cmajor
Gc~c2 gc~c2|Gceg f3c|Gc~c2 GFEC|(3DEF GF DEFA|
Gc~c2 gc~c2|Gceg f3e|dedc Bcdc|1 BGFD C3c:|2 BGFD CDEF||
c2ec gcec|Gceg fdcA|_B2dB FBdc|BGg2 fdBd|
c2ec Gcec|Bcde f2fe|dedc Bcdc|1 BGFD C3B|2 BGFD C2cB||

